X:33
T:TEGRMBL2- Nell of Connaught
S:Oswald's CPC, bk 9, c 1760
Q:1/4=120
L:1/4
M:3/4
K:Dm
A|d3/2e/d/e/|f3/2a/g/f/|ecc|c2A|d3/2e/d/e/|db/g/e/d/|~^cAA|A2::\
f/g/|a3/2b/a/b/|g3/2a/g/a/|f/e/f/a/g/f/|e2A|f/e/f/a/g/f/|\
g/^f/g/b/a/g/|add|d2:|]

